!!!COM: Bach, Johann Sebastian
!!!OPR: Joh. Seb. Bachs vierstimmige Choralgesänge
!!!XEN: Four-part Chorales
!!!OTL: 71. Meine Seele erhebet den Herrn
!!!SCT: BWV 324
!!!SCA: Thematisch-systematisches Verzeichnis der musikalischen Werke Johann Sebastian Bach: Bach-Werke-Verzeichnis (Schmieder)
!!!YOR: Bach Gesellschaft Edition xxxix
!!!ENC: Steven Rasmussen
!!!CDT: 1685/3//-1750/7/28/
!!!OCY: Deutschland
!!!YEC: Copyright (c) 1994, 2000 Center for Computer Assisted Research in the Humanities
!!!YEM: Rights to all derivative editions reserved
!!!YEN: United States of America
**kern	**kern	**kern	**kern	**silbe
*I:[BASSO]	*I:[TENORE]	*I:[ALTO]	*I:[SOPRANO]	*I:[SOPRANO]
*clefF4	*clefGv2	*clefG2	*clefG2	*
*k[f#]	*k[f#]	*k[f#]	*k[f#]	*
*G:	*G:	*G:	*G:	*
*M4/4	*M4/4	*M4/4	*M4/4	*
=1-	=1-	=1-	=1-	=1-
2E	2G	2e	2b	Mei-
2F#	2A	2d	2dd	.
=2	=2	=2	=2	=2
4G	4B	4d	4b	-ne
4F#	4A	4d#	4b	See-
4E	4G	4e	4b	-le
4D#	4F#	4f#	4b	er-
=3	=3	=3	=3	=3
4E	4G	4e	2cc	-he-
4F#	2A	2d	.	.
4G	.	.	2b	.
4E	4G	4e	.	.
=4	=4	=4	=4	=4
4C	2G	2e	2a	-bet
4AA	.	.	.	.
2D	2F#	2d	2a	den
=5	=5	=5	=5	=5
1GG;	1B;	1d;	1g;	Herrn,
=6	=6	=6	=6	=6
2G	1G	1d	2b	und
2BB	.	.	2dd	.
=7	=7	=7	=7	=7
! ERROR: The lange cannot be expressed in recip notation.	! ERROR: The lange cannot be expressed in recip notation.	! ERROR: The lange cannot be expressed in recip notation.	! ERROR: The lange cannot be expressed in recip notation.	!
2D	2F#	2d	2a	mein_Geist_freu-_et_sich_Got-_tes_mei-
1.D]	1.F#]	1.d]	1.a]	.
2C	2A	2e	2e	-nes
=8	=8	=8	=8	=8
4BB	2.B	2e	2g	Hei-
4AA	.	.	.	.
2BB	.	2d#	2f#	.
.	4A	.	.	.
=9	=9	=9	=9	=9
1EE;	1G;	1B;	1e;	-lands.
==|!	==|!	==|!	==|!	==|!
!!!RNB1: *) These reciting notes are stemless in the source.
*-	*-	*-	*-	*-
!!!RWG: Key is interpreted using the Humdrum key tool.
!!!URL-pdf: https://s9.imslp.org/files/imglnks/usimg/6/6b/IMSLP24489-PMLP09471-CCARH_Bach_Chorales.pdf#page=49 Musedata edition
!!!URL-pdf: https://s9.imslp.org/files/imglnks/usimg/7/7a/IMSLP04155-Bach_-_BGA_253-438.pdf#page=38 	Bach-Gesellschaft Ausgabe, Band 39 (pp.175-276) Leipzig: Breitkopf und Härtel, 1892. Plate B.W. XXXIX.
!!!END: 1994/06/07
!!!EMD: Converted from MuseData to Humdrum Dec 19, 2000, by Andreas Kornstaedt using muse2kern.
!!!EED: Craig Stuart Sapp
!!!EEV: 2024/03/31
!!!filter-keyboard: satb2gs
!!!title: @{OTL} (@{SCT})
